X:1
T:Title
%%score { 1 | 2 }
L:1/8
Q:1/4=184
M:3/2
K:Bb
V:1 treble nm="Grand Piano"
V:2 bass 
V:1
 G4 G4 G4 | d8 e4 | f8 d4 | c12 | d4 e4 ^f4 | g8 d2 e2 | f2 g2 e6 d2 | d12 | d4 f4 d4 | c8 A4 | %10
 B8 G4 | ^F12 | A4 B4 c4 | d8 c4 | B8 f4 | d8 c4 | B8 A2 G2 | G12 |] %18
V:2
 G,4 B,4 A,4 | G,4 F,4 E,4 | D,8 G,,4 | C,12 | G,,4 C,4 A,,4 | G,,8 G,4 | D,4 A,4 A,,4 | D,12 | %8
 B,,4 A,,4 B,,4 | F,8 ^F,4 | G,8 E,4 | D,12 | D,4 G,,4 F,,4 | B,,8 F,,4 | G,,8 A,,4 | B,,8 F,,4 | %16
 G,,4 D,4 D,,4 | G,,12 |] %18

